modules/coreui-icons-free/icons/indent-increase.svg

<!-- Generated by IcoMoon.io -->
<svg version="1.1" xmlns="http://www.w3.org/2000/svg" width="24" height="24" viewBox="0 0 24 24">
<title>indent-increase</title>
<path d="M3.375 3h19.875v1.5h-19.875v-1.5z"></path>
<path d="M9.375 7.125h13.875v1.5h-13.875v-1.5z"></path>
<path d="M9.375 11.25h13.875v1.5h-13.875v-1.5z"></path>
<path d="M9.375 15.375h13.875v1.5h-13.875v-1.5z"></path>
<path d="M3.375 19.5h19.875v1.5h-19.875v-1.5z"></path>
<path d="M0.75 6.793v10.415l7.29-5.207zM2.25 9.707l3.21 2.293-3.21 2.293z"></path>
</svg>

<svg xmlns="http://www.w3.org/2000/svg" width="24" height="24" viewBox="0 0 24 24"><path d="M3.375 3H23.25v1.5H3.375V3zM9.375 7.125H23.25v1.5H9.375v-1.5zM9.375 11.25H23.25v1.5H9.375v-1.5zM9.375 15.375H23.25v1.5H9.375v-1.5zM3.375 19.5H23.25V21H3.375v-1.5zM.75 6.793v10.415l7.29-5.207zm1.5 2.914L5.46 12l-3.21 2.293z"/></svg>
